X: 151110
M: 3/4
L: 1/4
K: G
|:\
[1 DGB | c2F | AGB | G3 ::\
[2 dcB | ^GAB | cEF | G3 ||
|:\
.d.d.e | .d.d.g | gfe |\
[1 ABc :|[2 d6 ||\
dgb | dfa | Adf | g3 |]


